symbols/web/settings_suggest/materialsymbolssharp/settings_suggest_wght600_20px.svg

<svg xmlns="http://www.w3.org/2000/svg" height="20" width="20"><path d="m15.875 7.583-1.042-2.271-2.291-1.041 2.291-1.042L15.875.958l1.042 2.271 2.291 1.042-2.291 1.041Zm1.646 6.334-.688-1.479-1.479-.688 1.479-.708.688-1.459.708 1.459 1.459.708-1.459.688ZM5.917 18.875l-.25-2.083q-.063-.021-.146-.063-.083-.041-.125-.083l-1.875.833L1 13.188l1.667-1.209V11.688L1 10.458l2.521-4.27L5.396 7q.062-.062.135-.104.073-.042.136-.063l.271-2.041h4.895l.271 2.041q.063.042.136.073.072.032.135.094l1.875-.812 2.5 4.27-1.646 1.23V11.979l1.646 1.209-2.5 4.291-1.875-.833q-.063.062-.156.104-.094.042-.115.042l-.271 2.083Zm2.479-4.396q1.104 0 1.864-.771.761-.77.761-1.896 0-1.104-.771-1.874-.771-.771-1.875-.771T6.5 9.948q-.771.781-.771 1.885 0 1.105.771 1.875.771.771 1.896.771Zm-.021-1.75q-.354 0-.625-.271-.271-.27-.271-.625 0-.375.261-.645.26-.271.635-.271t.635.271q.261.27.261.624 0 .376-.261.646-.26.271-.635.271ZM7.75 16.75H9l.188-1.479q.583-.146 1.01-.406.427-.261.823-.698l1.354.604.563-1-1.188-.917q.188-.458.188-1.031t-.188-1.031l1.188-.917-.563-1-1.354.583q-.417-.416-.833-.677-.417-.26-1-.427L9 6.875H7.75l-.188 1.479q-.583.167-1 .427-.416.261-.833.677l-1.354-.583-.563 1L5 10.792q-.167.458-.167 1.031T5 12.854l-1.188.917.563 1 1.375-.604q.396.437.812.698.417.26 1 .406Zm.625-4.938Z"/></svg>

<svg xmlns="http://www.w3.org/2000/svg" height="20" width="20"><path d="M15.875 7.583 14.833 5.312 12.542 4.271 14.833 3.229 15.875 0.958 16.917 3.229 19.208 4.271 16.917 5.312ZM17.521 13.917 16.833 12.438 15.354 11.75 16.833 11.042 17.521 9.583 18.229 11.042 19.688 11.75 18.229 12.438ZM5.917 18.875 5.667 16.792Q5.604 16.771 5.521 16.729Q5.438 16.688 5.396 16.646L3.521 17.479L1 13.188L2.667 11.979Q2.667 11.917 2.667 11.844Q2.667 11.771 2.667 11.688L1 10.458L3.521 6.188L5.396 7Q5.458 6.938 5.531 6.896Q5.604 6.854 5.667 6.833L5.938 4.792H10.833L11.104 6.833Q11.167 6.875 11.24 6.906Q11.312 6.938 11.375 7L13.25 6.188L15.75 10.458L14.104 11.688Q14.104 11.771 14.104 11.844Q14.104 11.917 14.104 11.979L15.75 13.188L13.25 17.479L11.375 16.646Q11.312 16.708 11.219 16.75Q11.125 16.792 11.104 16.792L10.833 18.875ZM8.396 14.479Q9.5 14.479 10.26 13.708Q11.021 12.938 11.021 11.812Q11.021 10.708 10.25 9.938Q9.479 9.167 8.375 9.167Q7.271 9.167 6.5 9.948Q5.729 10.729 5.729 11.833Q5.729 12.938 6.5 13.708Q7.271 14.479 8.396 14.479ZM7.75 16.75H9L9.188 15.271Q9.771 15.125 10.198 14.865Q10.625 14.604 11.021 14.167L12.375 14.771L12.938 13.771L11.75 12.854Q11.938 12.396 11.938 11.823Q11.938 11.25 11.75 10.792L12.938 9.875L12.375 8.875L11.021 9.458Q10.604 9.042 10.188 8.781Q9.771 8.521 9.188 8.354L9 6.875H7.75L7.562 8.354Q6.979 8.521 6.562 8.781Q6.146 9.042 5.729 9.458L4.375 8.875L3.812 9.875L5 10.792Q4.833 11.25 4.833 11.823Q4.833 12.396 5 12.854L3.812 13.771L4.375 14.771L5.75 14.167Q6.146 14.604 6.562 14.865Q6.979 15.125 7.562 15.271ZM8.375 11.812Q8.375 11.812 8.375 11.812Q8.375 11.812 8.375 11.812Q8.375 11.812 8.375 11.812Q8.375 11.812 8.375 11.812Q8.375 11.812 8.375 11.812Q8.375 11.812 8.375 11.812Q8.375 11.812 8.375 11.812Q8.375 11.812 8.375 11.812Q8.375 11.812 8.375 11.812Q8.375 11.812 8.375 11.812Q8.375 11.812 8.375 11.812Q8.375 11.812 8.375 11.812Z"/></svg>
